X:47
T:La moisson
O:France
A:Provence
R:Danse de caract?re
C:Trad. militaire
M:2/4
L:1/8
K:Bb
F | Bf df | dB Bf | f/>e/d/>c/ B/>A/B/>d/ | cA FF | Bf df |
dB Bf | | f/>e/d/>c/ B/>A/B/>d/ | cA B2 !fine!|| f/>=e/f/>d Bd | e/>d/e/>c/ A2 |
f/>=e/f/>d B/>A/B/>d/ | cA F2 | f/>=e/f/>d Bd | e/>d/e/>c/ A2 | f/>=e/f/>d B/>A/B/>d/ | cA B ||
<end>
<start>
